X: 32646
T: Plevin
R: jig
M: 6/8
K: Amixolydian
|:c2B ceg|f2e fde|BAB cag|f2e efa|
[1 GGF GB/c/d|de/f/g fdg|fed ded|cAa-a3:|
[2 b2a gag|gfe de/f/g|fed ded|cAa-a3||
M:9/8
|:GAB cBA ecA|GAB cBA ecA|DFA fdB gec|afd gec dc/B/A|
GAB cBA ecA|GAB cBA ecA|bd ad gd f2d|d/e/fd e6:|

